X: 10
T: Jenny Picking Cockles
Z: Thierry Masure
S: https://thesession.org/tunes/202#setting48847
R: reel
M: 4/4
L: 1/8
K: Dmix
|:Addc AGEF|GEcE dEcE|Addc AGEF|GEcE EDD2|
Addc AGEF|GEcE dEcd|eddc AGEF|GEcE EDD2:|
|:~f3d efed|^cAAB ^cdeg|f~d3 ed^cd|eaag edde|
~f3d efed|^cAAB =c3d|eddc AGEF|GEcE EDD2:|

%-------------------- TUNE SEPARATOR --------------------%

